svg/SJJB-OpenStreetMapIcons/shopping/mobile_phone.svg

<?xml version="1.0" encoding="UTF-8" standalone="no"?>
<!-- Created with Inkscape (http://www.inkscape.org/) -->

<svg
   xmlns:dc="http://purl.org/dc/elements/1.1/"
   xmlns:cc="http://creativecommons.org/ns#"
   xmlns:rdf="http://www.w3.org/1999/02/22-rdf-syntax-ns#"
   xmlns:svg="http://www.w3.org/2000/svg"
   xmlns="http://www.w3.org/2000/svg"
   xmlns:sodipodi="http://sodipodi.sourceforge.net/DTD/sodipodi-0.dtd"
   xmlns:inkscape="http://www.inkscape.org/namespaces/inkscape"
   version="1.0"
   width="580"
   height="580"
   id="svg2"
   sodipodi:version="0.32"
   inkscape:version="0.48.0 r9654"
   sodipodi:docname="shopping_mobile_phone.svg"
   inkscape:output_extension="org.inkscape.output.svg.inkscape">
  <metadata
     id="metadata2975">
    <rdf:RDF>
      <cc:Work
         rdf:about="">
        <dc:format>image/svg+xml</dc:format>
        <dc:type
           rdf:resource="http://purl.org/dc/dcmitype/StillImage" />
        <cc:license
           rdf:resource="http://web.resource.org/cc/PublicDomain" />
        <dc:language>en</dc:language>
        <dc:title />
      </cc:Work>
    </rdf:RDF>
  </metadata>
  <sodipodi:namedview
     inkscape:window-height="1003"
     inkscape:window-width="1920"
     inkscape:pageshadow="2"
     inkscape:pageopacity="0.0"
     guidetolerance="10.0"
     gridtolerance="10.0"
     objecttolerance="10.0"
     borderopacity="1.0"
     bordercolor="#666666"
     pagecolor="#ffffff"
     id="base"
     inkscape:zoom="0.16293104"
     inkscape:cx="-34.68414"
     inkscape:cy="-325.40572"
     inkscape:window-x="0"
     inkscape:window-y="24"
     inkscape:current-layer="svg2"
     showgrid="false"
     inkscape:window-maximized="1" />
  <defs
     id="defs4">
    <inkscape:perspective
       sodipodi:type="inkscape:persp3d"
       inkscape:vp_x="0 : 290 : 1"
       inkscape:vp_y="6.1230318e-14 : 1000 : 0"
       inkscape:vp_z="580 : 290 : 1"
       inkscape:persp3d-origin="290 : 193.33333 : 1"
       id="perspective2441" />
    <inkscape:perspective
       id="perspective3452"
       inkscape:persp3d-origin="30 : 20 : 1"
       inkscape:vp_z="60 : 30 : 1"
       inkscape:vp_y="0 : 1000 : 0"
       inkscape:vp_x="0 : 30 : 1"
       sodipodi:type="inkscape:persp3d" />
    <symbol
       viewBox="244.5 110 489 219.9"
       id="symbol-university">
      <path
         id="path4460"
         d="M79,43l57,119c0,0,21-96,104-96s124,106,124,106l43-133l82-17L0,17L79,43z" />
      <path
         id="path4462"
         d="M94,176l-21,39"
         stroke-width="20"
         stroke="#000000"
         fill="none" />
      <path
         id="path4464"
         d="M300,19c0,10.5-22.6,19-50.5,19S199,29.5,199,19s22.6-19,50.5-19S300,8.5,300,19z" />
      <path
         id="path4466"
         d="M112,216l-16-38L64,88c0,0-9-8-4-35s16-24,16-24"
         stroke-width="20"
         stroke="#000000"
         ill="none" />
    </symbol>
    <inkscape:perspective
       id="perspective4471"
       inkscape:persp3d-origin="372.04724 : 350.78739 : 1"
       inkscape:vp_z="744.09448 : 526.18109 : 1"
       inkscape:vp_y="0 : 1000 : 0"
       inkscape:vp_x="0 : 526.18109 : 1"
       sodipodi:type="inkscape:persp3d" />
    <inkscape:perspective
       id="perspective4668"
       inkscape:persp3d-origin="6 : 4 : 1"
       inkscape:vp_z="12 : 6 : 1"
       inkscape:vp_y="0 : 1000 : 0"
       inkscape:vp_x="0 : 6 : 1"
       sodipodi:type="inkscape:persp3d" />
    <inkscape:perspective
       id="perspective3826"
       inkscape:persp3d-origin="0.5 : 0.33333333 : 1"
       inkscape:vp_z="1 : 0.5 : 1"
       inkscape:vp_y="0 : 1000 : 0"
       inkscape:vp_x="0 : 0.5 : 1"
       sodipodi:type="inkscape:persp3d" />
    <inkscape:perspective
       id="perspective3855"
       inkscape:persp3d-origin="0.5 : 0.33333333 : 1"
       inkscape:vp_z="1 : 0.5 : 1"
       inkscape:vp_y="0 : 1000 : 0"
       inkscape:vp_x="0 : 0.5 : 1"
       sodipodi:type="inkscape:persp3d" />
    <inkscape:perspective
       id="perspective3909"
       inkscape:persp3d-origin="0.5 : 0.33333333 : 1"
       inkscape:vp_z="1 : 0.5 : 1"
       inkscape:vp_y="0 : 1000 : 0"
       inkscape:vp_x="0 : 0.5 : 1"
       sodipodi:type="inkscape:persp3d" />
    <inkscape:perspective
       id="perspective3950"
       inkscape:persp3d-origin="0.5 : 0.33333333 : 1"
       inkscape:vp_z="1 : 0.5 : 1"
       inkscape:vp_y="0 : 1000 : 0"
       inkscape:vp_x="0 : 0.5 : 1"
       sodipodi:type="inkscape:persp3d" />
    <inkscape:perspective
       id="perspective3972"
       inkscape:persp3d-origin="0.5 : 0.33333333 : 1"
       inkscape:vp_z="1 : 0.5 : 1"
       inkscape:vp_y="0 : 1000 : 0"
       inkscape:vp_x="0 : 0.5 : 1"
       sodipodi:type="inkscape:persp3d" />
    <inkscape:perspective
       id="perspective3994"
       inkscape:persp3d-origin="0.5 : 0.33333333 : 1"
       inkscape:vp_z="1 : 0.5 : 1"
       inkscape:vp_y="0 : 1000 : 0"
       inkscape:vp_x="0 : 0.5 : 1"
       sodipodi:type="inkscape:persp3d" />
    <inkscape:perspective
       id="perspective4016"
       inkscape:persp3d-origin="0.5 : 0.33333333 : 1"
       inkscape:vp_z="1 : 0.5 : 1"
       inkscape:vp_y="0 : 1000 : 0"
       inkscape:vp_x="0 : 0.5 : 1"
       sodipodi:type="inkscape:persp3d" />
  </defs>
  <g
     id="g1327">
    <path
       d="M 66.275,1.768 C 24.94,1.768 1.704,23.139 1.704,66.804 L 1.704,516.927 C 1.704,557.771 22.599,579.156 63.896,579.156 L 515.92,579.156 C 557.227,579.156 578.149,558.841 578.149,516.927 L 578.149,66.804 C 578.149,24.203 557.227,1.768 514.628,1.768 C 514.624,1.768 66.133,1.625 66.275,1.768 z "
       style="fill:#111;stroke:#eee;stroke-width:3.40799999"
       id="path1329" />
  </g>
  <g
     id="layer3"
     inkscape:label="Layout"
     style="display:none;stroke:#757575;stroke-opacity:1"
     transform="matrix(48.14969,0,0,48.14969,-536.27327,-33.306752)">
    <rect
       style="fill:none;stroke:#757575;stroke-width:0.10000000000000001;stroke-miterlimit:4;stroke-dasharray:none;stroke-opacity:1;display:inline"
       id="rect4134"
       width="10"
       height="10"
       x="1"
       y="1" />
    <rect
       style="fill:none;stroke:#757575;stroke-width:0.10000000000000001;stroke-miterlimit:4;stroke-dasharray:none;stroke-opacity:1;display:inline"
       id="rect4136"
       width="8"
       height="8"
       x="2"
       y="2" />
  </g>
  <g
     id="g3338"
     transform="matrix(1.3973279,-0.2437849,0.2437849,1.3973279,-185.07402,-56.183307)" />
  <g
     id="g4819"
     transform="matrix(1.0084226,0.2306563,-0.2306563,1.0084226,59.654986,-88.726193)"
     style="stroke:#ffffff;stroke-opacity:1;stroke-width:4.83341488;stroke-miterlimit:4;stroke-dasharray:none">
    <path
       id="rect4059"
       d="M 211.85009,83.51522 C 200.83053,84.070206 192.12248,93.134506 192.12248,104.29673 L 192.12248,521.21132 C 192.12248,532.73361 201.41463,542.02576 212.93692,542.02576 L 380.27582,542.02576 C 391.79811,542.02576 401.05732,532.73361 401.05732,521.21132 L 401.05732,104.29673 C 401.05732,92.774434 391.79811,83.51522 380.27582,83.51522 L 212.93692,83.51522 C 212.57685,83.51522 212.20556,83.497314 211.85009,83.51522 z M 229.73339,109.30273 L 363.44642,109.30273 C 373.30685,109.30273 381.26384,117.25973 381.26384,127.12016 L 381.26384,305.16268 C 381.26384,315.02311 373.30685,322.98011 363.44642,322.98011 L 229.73339,322.98011 C 219.87296,322.98011 211.9489,315.02311 211.9489,305.16268 L 211.9489,127.12016 C 211.9489,117.25973 219.87296,109.30273 229.73339,109.30273 z M 222.94893,351.69877 L 246.36518,351.69877 C 252.68993,351.69877 257.79336,356.76927 257.79336,363.09401 L 257.79336,385.22583 C 257.79336,391.55057 252.68993,396.62107 246.36518,396.62107 L 222.94893,396.62107 C 216.62419,396.62107 211.52075,391.55057 211.52075,385.22583 L 211.52075,363.09401 C 211.52075,356.76927 216.62419,351.69877 222.94893,351.69877 z M 284.40423,351.69877 L 307.82048,351.69877 C 314.14523,351.69877 319.21573,356.76927 319.21573,363.09401 L 319.21573,385.22583 C 319.21573,391.55057 314.14523,396.62107 307.82048,396.62107 L 284.40423,396.62107 C 278.07949,396.62107 272.97605,391.55057 272.97605,385.22583 L 272.97605,363.09401 C 272.97605,356.76927 278.07949,351.69877 284.40423,351.69877 z M 345.8266,351.69877 L 369.27578,351.69877 C 375.60052,351.69877 380.67103,356.76927 380.67103,363.09401 L 380.67103,385.22583 C 380.67103,391.55057 375.60052,396.62107 369.27578,396.62107 L 345.8266,396.62107 C 339.50185,396.62107 334.43135,391.55057 334.43135,385.22583 L 334.43135,363.09401 C 334.43135,356.76927 339.50185,351.69877 345.8266,351.69877 z M 222.94893,413.187 L 246.36518,413.187 C 252.68993,413.187 257.79336,418.29044 257.79336,424.61518 L 257.79336,446.71406 C 257.79336,453.0388 252.68993,458.14224 246.36518,458.14224 L 222.94893,458.14224 C 216.62419,458.14224 211.52075,453.0388 211.52075,446.71406 L 211.52075,424.61518 C 211.52075,418.29044 216.62419,413.187 222.94893,413.187 z M 284.40423,413.187 L 307.82048,413.187 C 314.14523,413.187 319.21573,418.29044 319.21573,424.61518 L 319.21573,446.71406 C 319.21573,453.0388 314.14523,458.14224 307.82048,458.14224 L 284.40423,458.14224 C 278.07949,458.14224 272.97605,453.0388 272.97605,446.71406 L 272.97605,424.61518 C 272.97605,418.29044 278.07949,413.187 284.40423,413.187 z M 345.8266,413.187 L 369.27578,413.187 C 375.60052,413.187 380.67103,418.29044 380.67103,424.61518 L 380.67103,446.71406 C 380.67103,453.0388 375.60052,458.14224 369.27578,458.14224 L 345.8266,458.14224 C 339.50185,458.14224 334.43135,453.0388 334.43135,446.71406 L 334.43135,424.61518 C 334.43135,418.29044 339.50185,413.187 345.8266,413.187 z M 222.94893,474.70817 L 246.36518,474.70817 C 252.68993,474.70817 257.79336,479.77867 257.79336,486.10342 L 257.79336,508.23523 C 257.79336,514.55997 252.68993,519.63048 246.36518,519.63048 L 222.94893,519.63048 C 216.62419,519.63048 211.52075,514.55997 211.52075,508.23523 L 211.52075,486.10342 C 211.52075,479.77867 216.62419,474.70817 222.94893,474.70817 z M 284.40423,474.70817 L 307.82048,474.70817 C 314.14523,474.70817 319.21573,479.77867 319.21573,486.10342 L 319.21573,508.23523 C 319.21573,514.55997 314.14523,519.63048 307.82048,519.63048 L 284.40423,519.63048 C 278.07949,519.63048 272.97605,514.55997 272.97605,508.23523 L 272.97605,486.10342 C 272.97605,479.77867 278.07949,474.70817 284.40423,474.70817 z M 345.8266,474.70817 L 369.27578,474.70817 C 375.60052,474.70817 380.67103,479.77867 380.67103,486.10342 L 380.67103,508.23523 C 380.67103,514.55997 375.60052,519.63048 369.27578,519.63048 L 345.8266,519.63048 C 339.50185,519.63048 334.43135,514.55997 334.43135,508.23523 L 334.43135,486.10342 C 334.43135,479.77867 339.50185,474.70817 345.8266,474.70817 z"
       style="fill:#ffffff;fill-opacity:1;stroke:#ffffff;stroke-opacity:1;stroke-width:4.83341488;stroke-miterlimit:4;stroke-dasharray:none"
       sodipodi:nodetypes="cccccccccccccccccccccccccccccccccccccccccccccccccccccccccccccccccccccccccccccccccccccccccccccccccccc" />
    <rect
       ry="6.8951635"
       y="32.841595"
       x="343.72568"
       height="59.324993"
       width="38.001587"
       id="rect3935"
       style="fill:#ffffff;fill-opacity:1;stroke:#ffffff;stroke-opacity:1;stroke-width:4.83341488;stroke-miterlimit:4;stroke-dasharray:none" />
    <path
       sodipodi:nodetypes="ccccccc"
       id="rect4099"
       d="M 192.12247,331.01606 L 192.12247,521.21132 C 192.12247,532.73361 201.41462,542.02576 212.93691,542.02576 L 380.2758,542.02576 C 391.79809,542.02576 401.0573,532.73361 401.0573,521.21132 L 401.0573,331.01606 L 192.12247,331.01606 z"
       style="opacity:0.20000000000000001;fill:#ffffff;fill-opacity:1;stroke:#ffffff;stroke-opacity:1;stroke-width:4.83341488;stroke-miterlimit:4;stroke-dasharray:none" />
    <path
       id="rect4119"
       d="M 211.85009,83.51522 C 200.83053,84.070206 192.12248,93.134506 192.12248,104.29673 L 192.12248,327.45916 L 401.05732,327.45916 L 401.05732,104.29673 C 401.05732,92.774434 391.79811,83.51522 380.27582,83.51522 L 212.93692,83.51522 C 212.57685,83.51522 212.20556,83.497314 211.85009,83.51522 z"
       style="opacity:0.20000000000000001;fill:#ffffff;fill-opacity:1;stroke:#ffffff;stroke-opacity:1;stroke-width:4.83341488;stroke-miterlimit:4;stroke-dasharray:none"
       sodipodi:nodetypes="cccccccc" />
  </g>
</svg>

<svg xmlns="http://www.w3.org/2000/svg" viewBox="0 0 580 580"><path d="m66.28 1.768c-41.34 0-64.57 21.371-64.57 65.04v450.12c0 40.844 20.895 62.23 62.19 62.23h452.02c41.31 0 62.23-20.315 62.23-62.23v-450.12c0-42.601-20.922-65.04-63.52-65.04-.004 0-448.5-.143-448.35 0z" fill="#111" stroke="#eee" stroke-width="3.408"/><g transform="matrix(1.0084.23066-.23066 1.0084 59.655-88.73)" stroke="#fff" stroke-width="4.833" fill="#fff"><path d="m211.85 83.52c-11.02.555-19.728 9.619-19.728 20.782v416.91c0 11.522 9.292 20.814 20.814 20.814h167.34c11.522 0 20.781-9.292 20.781-20.814v-416.91c0-11.522-9.259-20.782-20.781-20.782h-167.34c-.36 0-.731-.018-1.087 0zm17.883 25.788h133.71c9.86 0 17.817 7.957 17.817 17.817v178.04c0 9.86-7.957 17.817-17.817 17.817h-133.71c-9.86 0-17.784-7.957-17.784-17.817v-178.04c0-9.86 7.924-17.817 17.784-17.817zm-6.784 242.4h23.416c6.325 0 11.428 5.07 11.428 11.395v22.13c0 6.325-5.103 11.395-11.428 11.395h-23.416c-6.325 0-11.428-5.07-11.428-11.395v-22.13c0-6.325 5.103-11.395 11.428-11.395zm61.46 0h23.416c6.325 0 11.395 5.07 11.395 11.395v22.13c0 6.325-5.07 11.395-11.395 11.395h-23.416c-6.325 0-11.428-5.07-11.428-11.395v-22.13c0-6.325 5.103-11.395 11.428-11.395zm61.42 0h23.449c6.325 0 11.395 5.07 11.395 11.395v22.13c0 6.325-5.071 11.395-11.395 11.395h-23.449c-6.325 0-11.395-5.07-11.395-11.395v-22.13c0-6.325 5.07-11.395 11.395-11.395zm-122.88 61.49h23.416c6.325 0 11.428 5.103 11.428 11.428v22.1c0 6.325-5.103 11.428-11.428 11.428h-23.416c-6.325 0-11.428-5.103-11.428-11.428v-22.1c0-6.325 5.103-11.428 11.428-11.428zm61.46 0h23.416c6.325 0 11.395 5.103 11.395 11.428v22.1c0 6.325-5.07 11.428-11.395 11.428h-23.416c-6.325 0-11.428-5.103-11.428-11.428v-22.1c0-6.325 5.103-11.428 11.428-11.428zm61.42 0h23.449c6.325 0 11.395 5.103 11.395 11.428v22.1c0 6.325-5.071 11.428-11.395 11.428h-23.449c-6.325 0-11.395-5.103-11.395-11.428v-22.1c0-6.325 5.07-11.428 11.395-11.428zm-122.88 61.52h23.416c6.325 0 11.428 5.07 11.428 11.395v22.13c0 6.325-5.103 11.395-11.428 11.395h-23.416c-6.325 0-11.428-5.071-11.428-11.395v-22.13c0-6.325 5.103-11.395 11.428-11.395zm61.46 0h23.416c6.325 0 11.395 5.07 11.395 11.395v22.13c0 6.325-5.07 11.395-11.395 11.395h-23.416c-6.325 0-11.428-5.071-11.428-11.395v-22.13c0-6.325 5.103-11.395 11.428-11.395zm61.42 0h23.449c6.325 0 11.395 5.07 11.395 11.395v22.13c0 6.325-5.071 11.395-11.395 11.395h-23.449c-6.325 0-11.395-5.071-11.395-11.395v-22.13c0-6.325 5.07-11.395 11.395-11.395z"/><rect y="32.842" x="343.73" height="59.32" width="38" rx="6.895"/><path d="m192.12 331.02v190.2c0 11.522 9.292 20.814 20.814 20.814h167.34c11.522 0 20.781-9.292 20.781-20.814v-190.2h-208.93z" opacity=".2"/><path d="m211.85 83.52c-11.02.555-19.728 9.619-19.728 20.782v223.16h208.93v-223.16c0-11.522-9.259-20.782-20.781-20.782h-167.34c-.36 0-.731-.018-1.087 0z" opacity=".2"/></g></svg>
